X:1
T:Created 31.5.2004 by Björn Sothmann - bjoernsothmann@aol.com
%%score 1 2 3
L:1/8
Q:1/4=120
M:3/1
K:C
V:1 treble-8 nm="MusicXML Part"
V:2 treble-8 nm="MusicXML Part"
V:3 bass nm="MusicXML Part"
V:1
"^4. Se vittorie sì belle\nA doi Tenori\nfrom Madrigal Book VIII""^Claudio Monteverdi\n1567-1643" z8 D8 D8 | %1
w: Se vit-|
 G8 G8 G8 | B8 B8 d8 | B8 G8 d8 | B8 G8 G8 | G16 ^F8 | G8 A8 B8 | c8 c8 c8 | c16 B8 | c8 c8 d8 | %10
w: to- rie si|bel- le vit-|to- rie vit-|to- rie si|bel- le|* se vit-|to- rie si|bel- le|* han le|
 e12 d4 c8 | B24 | A8 A8 A8 | A12 G4 ^F8 | E16 D8 | E24 | D8 d8 d8 | d12 c4 B8 | A8 d8 d8 | %19
w: guer- re d'a-|mo-|re fat- ti|fat- ti guer-|rier mio|co-|re fat- ti|fat- ti guer-|rier fat- ti|
 d12 c4 B8 | A8 d16 | d24 | d24 | d24- | d16 B8 | A24 | B8 c8 d8 | e8 d8 c8 | d24 | c8 A8 B8 | %30
w: fat- ti guer-|rier fat-|ti|guer-|rier|* mio|co-|re se vit-|to- rie si|bel-|le han le|
 c12 B4 A8 | A16 ^G8 | A8 ^F8 F8 | ^F12 E4 D8 | ^C16 D8 | D16 ^C8 | D8 d8 d8 | d12 c4 B8 | %38
w: guer- re d'a-|mo- re|* fat- ti|fat- ti guer-|rier mio|co- re|* fat- ti|fat- ti guer-|
 A8 d8 d8 | d12 c4 B8 | A8 d16 | d24 | d24 | d16 B8 |[M:4/4] A4 G4- | G4 ^F4 | G8 | z2 E2 E2 E2 | %48
w: rier fat- ti|fat- ti guer-|rier fat-|ti|guer-|rier mi-|o co-||re|e non te-|
 E8 |[M:4/4] z2 G2 G2 G2 | G8 | GGGG GFED | EEGF E2 ED | CCcc c2 cc | c4 cccc | cBAG AAAG | %56
w: mer|e non te-|mer|non te- mer de gli a- mo- ro- si|stra- li le fe- ri- te mor-|ta- li non te- mer non te-|mer non te- mer de|gli a- mo- ro- si stra- li le fe-|
 ^F2 FE D2 D2 | z2 G/F/E/D/ E2 A/G/^F/E/ | ^F2 z2 z4 | AAdd BBee | z8 | z8 | z2 ee e2 ee | %63
w: ri- te mor- ta- li|pu- * * * * gna * * *||pu- gna pu- gna pu- gna pu- gna|||non te- mer non te-|
 e2 cc c2 cc | c4 eeee | edcB c2 c2 | ff f2 z4 | dddd dcBA | BBdc B2 BA | GGdc B2 BA | %70
w: mer non te- mer non te-|mer non te- mer de|gli a- mo- ro- si stra- li|non te- mer|non te- mer de gli a- mo- ro- si|stra- li le fe- ri- te mor-|ta- li le fe- ri- te mor-|
 GGc/B/A/G/ A2 d/c/B/A/ | B2 e/d/c/B/ c2 f/e/d/c/ | d2 z2 z4 | z8 | AAAA AG^FE | ^F2 F2 z4 | %76
w: ta- li pu- * * * * gna * * *|* pu- * * * * gna * * *|||non te- mer de gli a- mo- ro- si|stra- li|
 gggg gfed | e2 e2 z4 | eeee edcB | cced ^c2 cB | AAA/G/^F/E/ F2 B/A/G/F/ | %81
w: non te- mer de gli a- mo- ro- si|stra- li|non te- mer de gli a- mo- ro- si|stra- li le fe- ri- te mor-|ta- li pu- * * * * gna * * *|
 G2 c/B/A/G/ A2 d/c/B/A/ | B2 e/d/c/B/ c2 f/e/d/c/ | d2 z2 z4 | z4 d2 dd | dddd d2 dd | %86
w: * pu- * * * * gna * * *|* pu- * * * * gna * * *||sap- pi ch'è|glo- ria il mo- rir per de-|
 ddcB A2 A2 | d2 dd dddd | d4 e2 ee | eeee e2 ee | eedc B4 | A3 ^F F2 F2 | z2 A2 A2 A2 | z4 d4 | %94
w: sio del- la vit- to- ria|sap- pi ch'è glo- ria il mo-|rir sap- pi ch'è|glo- ria il mo- rir per de-|sio del- la vit- to-|ria è glo- ria|è glo- ria|è|
 d8 | d4 d2 d2 | d4 d2 d2 | d4 d4 | c4 B4 | A8 | G8 |] %101
w: glo-|ria il mo-|rir per de-|sio del-|la vit-|to-|ria.|
V:2
 z24 | z24 | z24 | z24 | z24 | z24 | z24 | z24 | z24 | z24 | z24 | z24 | z24 | z24 | z24 | z24 | %16
w: ||||||||||||||||
 z24 | z24 | z24 | z24 | z8 D8 D8 | G8 G8 G8 | B8 B8 d8 | B8 G8 d8 | B8 G8 G8 | G16 ^F8 | %26
w: ||||Se vit-|to- rie si|bel- le vit-|to- rie vit-|to- rie si|bel- le|
 G8 A8 B8 | c8 c8 c8 | c16 B8 | c8 c8 d8 | e8 d8 c8 | B24 | A8 A8 A8 | A12 G4 ^F8 | E16 D8 | E24 | %36
w: * se vit-|to- rie si|bel- le|* han le|guer- re d'a-|mo-|re fat- ti|fat- ti guer-|rier mio|co-|
 D24 | z8 d8 d8 | d12 c4 B8 | A8 d8 d8 | d12 c4 B8 | A8 d16 | d24 | d24 |[M:4/4] d6 B2 | A8 | G8 | %47
w: re|fat- ti|fat- ti guer-|rier fat- ti|fat- ti guer-|rier fat-|ti|guer-|rier mio|co-|re|
 z8 | z8 |[M:4/4] z2 E2 E2 E2 | E8 | z8 | z8 | z2 AA A2 AA | A4 AAAA | AG^FE F2 F2 | z2 AG ^F2 FE | %57
w: ||e non te-|mer|||non te- mer non te-|mer non te- mer de|gli a- mo- ro- si stra- li|le fe- ri- te mor-|
 D2 D2 z4 | z2 B/A/G/^F/ G2 c/B/A/G/ | A2 z2 z4 | c2 cc cccc | c2 cc cBBA | A4 ^G4 | A2 ee e2 ee | %64
w: ta- li|pu- * * * * gna * * *||sap- pi ch'è glo- ria il mo-|rir per de- sio del- la vit-|to- *|ria non te- mer non te-|
 e4 z4 | eeee edcB | c2 c2 ff f2 | z4 dddd | dcBA BBdc | B2 BA GGG/F/E/D/ | %70
w: mer|non te- mer de gli a- mo- ro- si|stra- li non te- mer|non te- mer de|gli a- mo- ro- si stra- li le fe-|ri- te mor- ta- li pu- * * *|
 E2 A/G/^F/E/ F2 B/A/G/F/ | G2 c/B/A/G/ A2 z2 | f2 ff ffff | f2 ff feed | ^c4 d4 | d2 dd dddd | %76
w: * gna * * * * pu- * * *|* gna * * * *|Sap- pi ch'è glo- ria il mo-|rir per de- sio del- la vit-|to- ria|sap- pi ch'è glo- ria il mo-|
 d4 z4 | GGcc AAdd | gggg gfed | e2 e2 z2 ed | ^c2 cB AA z2 | G/F/E/D/ E2 A/G/F/E/ F2 | %82
w: rir|pu- gna pu- gna pu- gna pu- gna|non te- mer de- gli a- mo- ro- si|stra- li le fe-|ri- te mor- ta- li|pu- * * * * gna * * * *|
 B/A/G/^F/ G2 c/B/A/G/ A2 | d2 dd dddd | d2 dd ddcB | A2 A2 d2 dd | dddd d2 dd | ddcB A4 | %88
w: pu- * * * * gna * * * *|sap- pi ch'è glo- ria il mo-|rir per de- sio del- la vit-|to- ria sap- pi ch'è|glo- ria il mo- rir per de-|sio del- la vit- to-|
 G4 c2 cc | cccc c2 cc | cBBA A2 ^G2 | A4 z4 | z2 ^F2 F2 F2 | z4 B4 | B8 | B4 B2 B2 | B4 B2 B2 | %97
w: ria sap- pi ch'è|glo- ria il mo- rir per de-|sio del- la vit- to- *|ria|è glo- ria|è|glo-|ria il mo-|rir per de-|
 B4 A4 | G4 G4 | G4 ^F4 | G8 |] %101
w: sio del-|la vit-|to- *|ria.|
V:3
 G,,16 G,,8 | G,,8 G,,8 G,,8 | G,,8 G,,8 G,,8 | G,,8 G,,8 G,,8 | G,,16 C,8 | D,24 | G,,24 | C,24 | %8
 G,24 | C,16 B,,8 | A,,24 | E,24 | A,,8 A,,8 A,,8 | D,16 D,8 | A,,16 D,,8 | A,,24 | D,16 G,,8 | %17
 D,16 G,,8 | D,16 G,,8 | D,16 G,,8 | D,24 | G,,8 G,,8 G,,8 | G,,8 G,,8 G,,8 | G,,8 G,,8 G,,8 | %24
 B,,16 C,8 | D,24 | G,,24 | C,24 | G,24 | C,16 B,,8 | A,,24 | E,24 | A,,24 | D,24 | A,,16 D,,8 | %35
 A,,24 | D,16 G,,8 | D,16 G,,8 | D,16 G,,8 | D,16 G,,8 | D,16 G,,8 | D,24 | G,,24 | D,16 G,,8 | %44
[M:4/4] D,4 G,,4 | D,,8 | G,,8 | C,8 | C,8 |[M:4/4] C,8 | C,8 | G,2 F,2 E,2 D,2 | C,4 C,2 B,,2 | %53
 A,,4 A,,2 G,,2 | F,,4 A,2 G,2 | F,2 E,2 D,4 | D,8 | G,,4 C,2 A,,2 | D,2 B,,2 E,2 C,2 | %59
 F,2 D,D, G,G,E,E, | A,,2 B,,2 C,2 D,2 | E,2 ^F,2 ^G,2 A,2 | E,8 | A,,8 | A,,4 E2 D2 | %65
 C2 B,2 A,2 G,2 | F,2 E,2 D,2 E,2 | F,2 E,2 D,2 C,2 | B,,2 A,,2 G,,4 | G,,8 | C,2 A,,2 D,2 B,,2 | %71
 E,2 C,2 F,2 E,2 | D,2 E,2 F,2 G,2 | A,2 B,2 ^C2 D2 | A,2 G,2 ^F,2 E,2 | D,2 C,2 B,,2 A,,2 | %76
 G,2 F,2 E,2 D,2 | C,4 F,2 D,2 | G,,2 F,,2 E,,2 D,,2 | C,2 B,,2 A,,4 | A,,4 D,2 B,,2 | %81
 E,2 C,2 F,2 D,2 | G,2 E,2 A,2 F,2 | G,,2 A,,2 B,,2 C,2 | D,2 E,2 ^F,2 G,2 | D,4 G,,2 A,,2 | %86
 B,,2 C,2 D,2 E,2 | ^F,2 G,2 D,4 | G,2 F,2 E,2 D,2 | C,2 B,,2 A,,2 G,,F,, | E,,8 | A,,4 D,4 | %92
 z2 D,2 D,4 | z4 G,,4 | G,,8 | G,,4 G,,2 G,,2 | G,,4 G,,2 G,,2 | G,,4 A,,4 | B,,6 C,2 | D,8 | %100
 G,,8 |] %101

